app/images/icon/design-item-3.svg

<svg width="56" height="56" viewBox="0 0 56 56" fill="none" xmlns="http://www.w3.org/2000/svg">
<rect width="56" height="56" fill="#0037A1"/>
<path d="M26.42 35.42C25 37.4 23.01 38.39 20.45 38.39C17.89 38.39 15.9 37.4 14.48 35.42C13.06 33.44 12.35 30.8 12.35 27.5C12.35 24.2 13.06 21.56 14.48 19.58C15.9 17.6 17.89 16.61 20.45 16.61C23.01 16.61 25 17.6 26.42 19.58C27.84 21.56 28.55 24.2 28.55 27.5C28.55 30.8 27.84 33.44 26.42 35.42ZM16.52 33.53C17.44 34.95 18.75 35.66 20.45 35.66C22.15 35.66 23.46 34.95 24.38 33.53C25.32 32.11 25.79 30.1 25.79 27.5C25.79 24.9 25.32 22.89 24.38 21.47C23.46 20.03 22.15 19.31 20.45 19.31C18.75 19.31 17.44 20.02 16.52 21.44C15.6 22.86 15.14 24.88 15.14 27.5C15.14 30.1 15.6 32.11 16.52 33.53ZM38.6734 25.61C40.2734 25.91 41.5834 26.6 42.6034 27.68C43.6234 28.76 44.1334 30.13 44.1334 31.79C44.1334 33.83 43.4334 35.44 42.0334 36.62C40.6334 37.8 38.9334 38.39 36.9334 38.39C35.3334 38.39 33.9134 38.03 32.6734 37.31C31.4334 36.57 30.5534 35.51 30.0334 34.13L32.3734 32.75C32.9934 34.69 34.5134 35.66 36.9334 35.66C38.2334 35.66 39.2934 35.32 40.1134 34.64C40.9334 33.96 41.3434 33.01 41.3434 31.79C41.3434 30.57 40.9334 29.62 40.1134 28.94C39.2934 28.24 38.2334 27.89 36.9334 27.89H36.2134L35.1034 26.18L39.9634 19.61H30.6334V17H43.2334V19.46L38.6734 25.61Z" fill="white"/>
</svg>

<svg width="56" height="56" fill="none" xmlns="http://www.w3.org/2000/svg">
    <path fill="#0037A1" d="M0 0h56v56H0z"/>
    <path d="M26.42 35.42c-1.42 1.98-3.41 2.97-5.97 2.97-2.56 0-4.55-.99-5.97-2.97-1.42-1.98-2.13-4.62-2.13-7.92s.71-5.94 2.13-7.92c1.42-1.98 3.41-2.97 5.97-2.97 2.56 0 4.55.99 5.97 2.97 1.42 1.98 2.13 4.62 2.13 7.92s-.71 5.94-2.13 7.92Zm-9.9-1.89c.92 1.42 2.23 2.13 3.93 2.13 1.7 0 3.01-.71 3.93-2.13.94-1.42 1.41-3.43 1.41-6.03s-.47-4.61-1.41-6.03c-.92-1.44-2.23-2.16-3.93-2.16-1.7 0-3.01.71-3.93 2.13-.92 1.42-1.38 3.44-1.38 6.06 0 2.6.46 4.61 1.38 6.03Zm22.153-7.92c1.6.3 2.91.99 3.93 2.07 1.02 1.08 1.53 2.45 1.53 4.11 0 2.04-.7 3.65-2.1 4.83-1.4 1.18-3.1 1.77-5.1 1.77-1.6 0-3.02-.36-4.26-1.08-1.24-.74-2.12-1.8-2.64-3.18l2.34-1.38c.62 1.94 2.14 2.91 4.56 2.91 1.3 0 2.36-.34 3.18-1.02.82-.68 1.23-1.63 1.23-2.85 0-1.22-.41-2.17-1.23-2.85-.82-.7-1.88-1.05-3.18-1.05h-.72l-1.11-1.71 4.86-6.57h-9.33V17h12.6v2.46l-4.56 6.15Z" fill="#fff"/>
</svg>
